X:1
T: The Head-Light
C:
R:Reel
Q: 232
K:D
M:4/4
L:1/8
|:D2|DA, A,D FD DF|Ad dB A2 FA|GB EG FA DF|EF GE DC B,A,|
DA, A,D FD DF|Ad dB A2 FA|GB EG FA DF|ED CE D2:|
|:fg|af df ge ce|fd Ad e2 dc|dD EF GA Bc|de fg e2 fg|
af ge fd ec|dA BG AF GE|FD ED A,D FD|ED CE D2:|
